X: 44
T:Charlbytown Two-Step
% Nottingham Music Database
S:Trad, arr Phil Rowe
M:6/8
K:C
ef|"C"g^fg a2g|"C7"edc G2E|"F"FEF A2G|F3 -FEF|"G7"G^FG B2A|
G^FG B2A|"G7"G^FG A2G|"C"E3 -"G7"E2g|"C"g^fg a2g|"C7"edc G2E|"Dm"FEF A2G|
F3 -FEF|"G7"G^FG B2A|G^FG B2A|"G7"GAB e2d|"C"+E3 c3 +zef||
"C"g2g gfe|"C7"g3 -g^fg|"F"agf def|"Dm"a3 -a^ga|"G7"b2a g2f|
"C"e2d cBA|"G""c"G^FG "G7"A2G|"C"e3 -"G7"eef|"C"g2g gfe|"C7"g3 z^fg|"F"agf def\
|
"D7"a3 -a^ga|"G7"b2a g2f|"C"e2d "C/dim"cBA|"G"GAB "G7"e2d|"C"[E3c3]-[E3c3]|<end>
<start>
